mimetypes/x-office-calendar.svg

<svg width="2048" height="2048" viewBox="-192 -384 2048 2048"><g transform="scale(1 -1) translate(0 -1280)"><path d="M128 -128h288v288h-288v-288zM480 -128h320v288h-320v-288zM128 224h288v320h-288v-320zM480 224h320v320h-320v-320zM128 608h288v288h-288v-288zM864 -128h320v288h-320v-288zM480 608h320v288h-320v-288zM1248 -128h288v288h-288v-288zM864 224h320v320h-320v-320z M512 1088v288q0 13 -9.5 22.5t-22.5 9.5h-64q-13 0 -22.5 -9.5t-9.5 -22.5v-288q0 -13 9.5 -22.5t22.5 -9.5h64q13 0 22.5 9.5t9.5 22.5zM1248 224h288v320h-288v-320zM864 608h320v288h-320v-288zM1248 608h288v288h-288v-288zM1280 1088v288q0 13 -9.5 22.5t-22.5 9.5h-64 q-13 0 -22.5 -9.5t-9.5 -22.5v-288q0 -13 9.5 -22.5t22.5 -9.5h64q13 0 22.5 9.5t9.5 22.5zM1664 1152v-1280q0 -52 -38 -90t-90 -38h-1408q-52 0 -90 38t-38 90v1280q0 52 38 90t90 38h128v96q0 66 47 113t113 47h64q66 0 113 -47t47 -113v-96h384v96q0 66 47 113t113 47 h64q66 0 113 -47t47 -113v-96h128q52 0 90 -38t38 -90z" fill="black" /></g></svg>

<?xml version="1.0" encoding="UTF-8" standalone="no"?>
<svg
   xmlns:dc="http://purl.org/dc/elements/1.1/"
   xmlns:cc="http://creativecommons.org/ns#"
   xmlns:rdf="http://www.w3.org/1999/02/22-rdf-syntax-ns#"
   xmlns:svg="http://www.w3.org/2000/svg"
   xmlns="http://www.w3.org/2000/svg"
   xmlns:sodipodi="http://sodipodi.sourceforge.net/DTD/sodipodi-0.dtd"
   xmlns:inkscape="http://www.inkscape.org/namespaces/inkscape"
   width="2048"
   height="2048"
   viewBox="-384 -384 2048 2048"
   id="svg2"
   version="1.1"
   inkscape:version="0.48.4 r9939"
   sodipodi:docname="file-o.svg">
  <metadata
     id="metadata12">
    <rdf:RDF>
      <cc:Work
         rdf:about="">
        <dc:format>image/svg+xml</dc:format>
        <dc:type
           rdf:resource="http://purl.org/dc/dcmitype/StillImage" />
        <dc:title></dc:title>
      </cc:Work>
    </rdf:RDF>
  </metadata>
  <defs
     id="defs10" />
  <sodipodi:namedview
     pagecolor="#ffffff"
     bordercolor="#666666"
     borderopacity="1"
     objecttolerance="10"
     gridtolerance="10"
     guidetolerance="10"
     inkscape:pageopacity="0"
     inkscape:pageshadow="2"
     inkscape:window-width="640"
     inkscape:window-height="480"
     id="namedview8"
     showgrid="false"
     inkscape:zoom="0.11523438"
     inkscape:cx="1024"
     inkscape:cy="1024"
     inkscape:window-x="709"
     inkscape:window-y="370"
     inkscape:window-maximized="0"
     inkscape:current-layer="svg2" />
  <g
     transform="scale(1 -1) translate(0 -1280)"
     id="g4">
    <path
       d="M128 0h1024v768h-416q-40 0 -68 28t-28 68v416h-512v-1280zM768 896h376q-10 29 -22 41l-313 313q-12 12 -41 22v-376zM1280 864v-896q0 -40 -28 -68t-68 -28h-1088q-40 0 -68 28t-28 68v1344q0 40 28 68t68 28h640q40 0 88 -20t76 -48l312 -312q28 -28 48 -76t20 -88z "
       fill="black"
       id="path6" />
  </g>
  <g
     transform="matrix(0.35853977,0,0,-0.35853977,337.35593,1123.129)"
     id="g4-0">
    <path
       style="fill:#000000"
       inkscape:connector-curvature="0"
       d="M 128,-128 H 416 V 160 H 128 v -288 z m 352,0 H 800 V 160 H 480 V -128 z M 128,224 H 416 V 544 H 128 V 224 z m 352,0 H 800 V 544 H 480 V 224 z M 128,608 H 416 V 896 H 128 V 608 z m 736,-736 h 320 V 160 H 864 V -128 z M 480,608 H 800 V 896 H 480 V 608 z m 768,-736 h 288 V 160 H 1248 V -128 z M 864,224 h 320 V 544 H 864 V 224 z m -352,864 v 288 q 0,13 -9.5,22.5 -9.5,9.5 -22.5,9.5 h -64 q -13,0 -22.5,-9.5 Q 384,1389 384,1376 v -288 q 0,-13 9.5,-22.5 9.5,-9.5 22.5,-9.5 h 64 q 13,0 22.5,9.5 9.5,9.5 9.5,22.5 z m 736,-864 h 288 V 544 H 1248 V 224 z M 864,608 h 320 V 896 H 864 V 608 z m 384,0 h 288 V 896 H 1248 V 608 z m 32,480 v 288 q 0,13 -9.5,22.5 -9.5,9.5 -22.5,9.5 h -64 q -13,0 -22.5,-9.5 -9.5,-9.5 -9.5,-22.5 v -288 q 0,-13 9.5,-22.5 9.5,-9.5 22.5,-9.5 h 64 q 13,0 22.5,9.5 9.5,9.5 9.5,22.5 z m 384,64 V -128 q 0,-52 -38,-90 -38,-38 -90,-38 H 128 q -52,0 -90,38 -38,38 -38,90 v 1280 q 0,52 38,90 38,38 90,38 h 128 v 96 q 0,66 47,113 47,47 113,47 h 64 q 66,0 113,-47 47,-47 47,-113 v -96 h 384 v 96 q 0,66 47,113 47,47 113,47 h 64 q 66,0 113,-47 47,-47 47,-113 v -96 h 128 q 52,0 90,-38 38,-38 38,-90 z"
       id="path6-7" />
  </g>
</svg>
